img/icons/Group 3.svg

<svg width="52" height="52" viewBox="0 0 52 52" fill="none" xmlns="http://www.w3.org/2000/svg">
<path d="M51.2125 32.3547C47.7056 46.3789 33.6779 54.7057 19.6502 51.1997C5.62255 47.6936 -2.70641 33.6695 0.800517 19.6453C4.30744 5.62114 18.3351 -2.70573 32.3628 0.800316C46.1713 4.30636 54.7195 18.3305 51.2125 32.3547Z" fill="#403F3F"/>
<path fill-rule="evenodd" clip-rule="evenodd" d="M15.3 24.022C15.8 23.9231 17.4001 23.2308 17.9001 22.9341C18.8001 22.5385 19.7 22.2418 20.6 21.8462C21.3 21.5495 25.6 19.6703 26 19.6703C26.6 19.5714 35 23.7253 36.5 24.2198C35.5 22.9341 27.1 9.58242 26.1 8C25.7 8.49451 25.2 9.38462 24.8 9.97802L20.8 16.1099C19.9 17.4945 19 18.7802 18.1 20.1648C17.5 20.7582 15.7 23.6264 15.3 24.022Z" fill="white"/>
<path fill-rule="evenodd" clip-rule="evenodd" d="M15 26.4945L26.1 32.6264C26.5 32.5275 27.1 32.1319 27.4 31.9341L36.9 26.5934C35.7 26.0989 26.4 21.8462 26 21.8462L15 26.4945Z" fill="white"/>
<path fill-rule="evenodd" clip-rule="evenodd" d="M15.4 29.1648C16.3 30.3516 25.3 43.1099 26.2 44L37 29.1648C36.5 29.5604 35 30.3516 34.3 30.6483L28.8 33.7143C25.4 35.5934 26.8 35.6923 23.3 33.6154L18 30.7472C17.4 30.3516 15.8 29.5604 15.4 29.1648Z" fill="white"/>
</svg>

<svg width="52" height="52" viewBox="0 0 52 52" fill="none" xmlns="http://www.w3.org/2000/svg"><path d="M51.212 32.355C47.706 46.379 33.678 54.705 19.65 51.2 5.623 47.694-2.706 33.67.8 19.645 4.308 5.621 18.336-2.705 32.364.8c13.808 3.506 22.356 17.53 18.85 31.555z" fill="#403F3F"/><path fill-rule="evenodd" clip-rule="evenodd" d="M15.3 24.022c.5-.099 2.1-.791 2.6-1.088.9-.396 1.8-.692 2.7-1.088.7-.297 5-2.176 5.4-2.176.6-.099 9 4.055 10.5 4.55-1-1.286-9.4-14.638-10.4-16.22-.4.495-.9 1.385-1.3 1.978l-4 6.132c-.9 1.384-1.8 2.67-2.7 4.055-.6.593-2.4 3.461-2.8 3.857z" fill="#fff"/><path fill-rule="evenodd" clip-rule="evenodd" d="M15 26.494l11.1 6.132c.4-.098 1-.494 1.3-.692l9.5-5.34c-1.2-.495-10.5-4.748-10.9-4.748l-11 4.648z" fill="#fff"/><path fill-rule="evenodd" clip-rule="evenodd" d="M15.4 29.165C16.3 30.352 25.3 43.11 26.2 44L37 29.165c-.5.395-2 1.187-2.7 1.483l-5.5 3.066c-3.4 1.88-2 1.978-5.5-.099L18 30.747c-.6-.395-2.2-1.187-2.6-1.582z" fill="#fff"/></svg>
